X: 30731
T: Orlando's Return
R: reel
M: 4/4
K: Gmajor
|:D2|GFGA G2 A2|BABc B2 c2|d2 G2 c2 B2|AGFE D2 D2|
GFGA G2 A2|BABc B2 c2|d2 G2 BAGF|G2 GF G2:|
|:Bc|d3 d d2 B2|c2 e2 A2 c2|B2 G2 c2 B2|AGFE D2 d2|
GFGA G2 A2|BABc B2 c2|d2 G2 BAGF|G2 FG G2:|

